X: 23159
T: Le Chêne Des Hindrés
R: barndance
M: 4/4
K: Adorian
E2|A3B cB BA AG|HG2BB/c/ AG HB2|A6E2|
A3B dc BA|HG2Bc/B/ AG BA/A/|HA6E2|
A3(3B/c/d/ e3a ga|e3 B/c/ HB2 B2|A3 c/B/ AG BA|HA6E2|
A3(3B/c/d/ e3ab|c'3 (3b/a/g/ e3 g|fe dc HB2 B2|A/d/c/B/ AG B2|HA6E2|

